icon-svg/iosfacetime.svg

<svg xmlns="http://www.w3.org/2000/svg" viewBox="0 0 24 24"><path fill="#44739e" d="M17.41 2H6.59A4.58 4.58 0 0 0 2 6.59v10.82A4.58 4.58 0 0 0 6.59 22h10.82A4.58 4.58 0 0 0 22 17.41V6.59A4.58 4.58 0 0 0 17.41 2m-2.653 12.447a1.924 1.924 0 0 1-1.924 1.923h-5.86a1.924 1.924 0 0 1-1.923-1.923v-4.87a1.923 1.923 0 0 1 1.927-1.924h5.856a1.925 1.925 0 0 1 1.924 1.924Zm4.2.74a.771.771 0 0 1-1.266.59l-2.211-1.854a.85.85 0 0 1-.3-.653v-2.52a.85.85 0 0 1 .31-.657l2.206-1.82a.769.769 0 0 1 1.26.594Z"/></svg>

<?xml version="1.0" encoding="UTF-8"?>
<svg width="24px" fill="#44739e" height="24px" viewBox="0 0 24 24" version="1.1" xmlns="http://www.w3.org/2000/svg" xmlns:xlink="http://www.w3.org/1999/xlink">
            <path d="M 17.41,2 H 6.59 A 4.58,4.58 0 0 0 2,6.59 V 17.41 A 4.58,4.58 0 0 0 6.59,22 H 17.41 A 4.58,4.58 0 0 0 22,17.41 V 6.59 A 4.58,4.58 0 0 0 17.41,2 Z M 14.757,14.447 A 1.924,1.924 0 0 1 12.833,16.37 H 6.973 A 1.924,1.924 0 0 1 5.05,14.447 V 9.577 A 1.923,1.923 0 0 1 6.977,7.653 h 5.856 a 1.925,1.925 0 0 1 1.924,1.924 z m 4.2,0.74 a 0.771,0.771 0 0 1 -1.266,0.59 L 15.48,13.923 a 0.851,0.851 0 0 1 -0.3,-0.653 v -2.52 a 0.854,0.854 0 0 1 0.31,-0.657 l 2.206,-1.82 a 0.769,0.769 0 0 1 1.26,0.594 z"/>

</svg>
